X:2032
T:The Old Box Stove
C:Ward Allen
R:jig
M:6/8
L:1/8
Z:<http://tunes.nhcountrydance.com>.
K:F
|:AB=B|c2 a B2 g|Aff fcA|Bgg gAB|caa aAB|
c2 a B2 g|Aff fcA|Bcd bge|f3 :|
K:Bb
e3|d2 d d2 d|dBF DFB|d^cd Bdg|f3 fcd|
e2 e e2 e|ecA F2 A|ede gf=e|f=eg fc_e|
d2 d d2 d|dBF DFB|d^cd Bdb|g3 gag|
efg f2 e|d2 f B2 d|cde FGA| B3|]

